img/popup/04.svg

<svg width="25" height="23" viewBox="0 0 25 23" fill="none" xmlns="http://www.w3.org/2000/svg">
<path d="M3.2277 0L0.586854 0.938967L0 2.05399L1.05634 12.0305L20.3638 22.4765L25 18.7207V5.98592L3.2277 0Z" fill="black"/>
<path d="M0.586914 0.938965L5.63386 2.4061L10.6808 3.87324L15.7278 5.34037C16.5494 5.57512 17.4296 5.80986 18.2512 6.10328C19.0728 6.33803 19.9531 6.63145 20.7747 6.92488H20.6573C21.3616 6.74882 22.0658 6.57277 22.8287 6.4554C23.1808 6.39671 23.5329 6.27934 23.885 6.22066C24.2372 6.16197 24.5893 6.0446 24.9414 5.98591V6.0446C24.5893 6.16197 24.2372 6.27934 23.885 6.39671C23.5329 6.51408 23.1808 6.63145 22.8287 6.74882C22.1245 6.98357 21.4202 7.15962 20.716 7.39436H20.6573H20.5987C19.7771 7.15962 18.8968 6.92488 18.0752 6.63145C17.2536 6.39671 16.3733 6.10328 15.5517 5.80986L10.5634 4.16666L5.57518 2.58216L0.586914 0.938965Z" fill="white"/>
<path d="M0 2.05396L18.5 6.98353V6.49997L20.5399 6.98353L20.9507 7.33565L20.1878 8.27461L20.0704 8.45067L19.9531 8.39198L0 2.05396Z" fill="white"/>
<path d="M20.1291 8.27466L20.3639 22.4765L19 8L20.1291 8.27466Z" fill="white"/>
</svg>

<svg width="25" height="23" fill="none" xmlns="http://www.w3.org/2000/svg"><path d="M3.228 0L.587.939 0 2.054l1.056 9.976 19.308 10.447L25 18.72V5.986L3.228 0z" fill="#000"/><path d="M.587.939l5.047 1.467 5.047 1.467 5.047 1.467c.821.235 1.702.47 2.523.763.822.235 1.702.528 2.524.822h-.118c.705-.176 1.409-.352 2.172-.47.352-.058.704-.176 1.056-.234.352-.059.704-.176 1.056-.235v.059l-1.056.352-1.056.352c-.704.235-1.409.41-2.113.645h-.117c-.822-.234-1.702-.47-2.524-.763a42.085 42.085 0 01-2.523-.821l-4.989-1.643-4.988-1.585L.587.94z" fill="#fff"/><path d="M0 2.054l18.5 4.93V6.5l2.04.484.41.352-.762.939-.118.176-.117-.059L0 2.054z" fill="#fff"/><path d="M20.13 8.275l.234 14.202L19 8l1.13.275z" fill="#fff"/></svg>
